X:2
Q:145
K: F
V:1
M: 6/8
L: 1/8
z3A,G,A,|C3 CDE|D3 DEF|B2AG2F|C3
V:2
K: bass
L: 1/8
[F,,F,]6|[E,,E,]6|[D,,D,]6|[B,B]6|[F,,F,]6